Newaita-dark/mimetypes/24/text-x-gettext-translation-template.svg

<svg height="24pt" viewBox="0 0 24 24" width="24pt" xmlns="http://www.w3.org/2000/svg" xmlns:xlink="http://www.w3.org/1999/xlink"><linearGradient id="a"><stop offset="0" stop-opacity=".27451"/><stop offset="1" stop-opacity="0"/></linearGradient><linearGradient id="b" gradientUnits="userSpaceOnUse" x1="12.403533" x2="12.403533" xlink:href="#a" y1="21.02545025" y2="22.01773315627"/><linearGradient id="c"><stop offset="0" stop-opacity=".313725"/><stop offset=".222222" stop-opacity=".27451"/><stop offset="1" stop-opacity="0"/></linearGradient><radialGradient id="d" cx="450.90894" cy="189.57936" gradientTransform="matrix(.00000013 -.0585994 -.105479 -.00000008 37.113426 47.6965)" gradientUnits="userSpaceOnUse" r="21.166656" xlink:href="#c"/><radialGradient id="e" cx="450.90894" cy="189.57936" gradientTransform="matrix(-.00000013 .0585994 .105479 .00000008 -13.794789 -5.64561)" gradientUnits="userSpaceOnUse" r="21.166656" xlink:href="#c"/><radialGradient id="f" cx="450.90894" cy="189.57936" gradientTransform="matrix(-.00000013 -.0585994 .105479 -.00000008 -13.794789 47.6965)" gradientUnits="userSpaceOnUse" r="21.166656" xlink:href="#c"/><radialGradient id="g" cx="450.90894" cy="189.57936" gradientTransform="matrix(.00000013 .0585994 -.105479 .00000008 37.113425 -5.64561)" gradientUnits="userSpaceOnUse" r="21.166656" xlink:href="#c"/><linearGradient id="h" gradientUnits="userSpaceOnUse" x1="11.65929" x2="11.65929" y1="21.0253985937" y2="2.17207760142"><stop offset="0" stop-color="#e0e0e0"/><stop offset="1" stop-color="#eee"/></linearGradient><linearGradient id="i" gradientTransform="matrix(.0224206 0 0 .082039 11.281817 -12.394717)" gradientUnits="userSpaceOnUse" x1="249.18942" x2="249.18942" xlink:href="#a" y1="233.5" y2="254.66669"/><linearGradient id="j"><stop offset="0" stop-color="#9e9e9e"/><stop offset="1" stop-color="#bdbdbd"/></linearGradient><linearGradient id="k" gradientUnits="userSpaceOnUse" x1="15.87652368747" x2="15.87652368747" xlink:href="#j" y1="21.02545025" y2="2.17207784373"/><linearGradient id="l" gradientUnits="userSpaceOnUse" x1="800.00012649104" x2="819.99962862409" xlink:href="#j" y1="1695.11819267241" y2="175.11810090943"/><path d="m5.953125 21.027344h11.410156v.992187h-11.410156zm0 0" fill="url(#b)"/><path d="m17.363281 21.027344h1.984375v-.996094h-1.984375zm0 0" fill="url(#d)"/><path d="m5.953125 21.027344h-1.984375v.992187h1.984375zm0 0" fill="url(#e)"/><path d="m5.953125 21.027344h-1.984375v-.996094h1.984375zm0 0" fill="url(#f)"/><path d="m17.363281 21.027344h1.984375v.992187h-1.984375zm0 0" fill="url(#g)"/><path d="m13.90625 2.171875h-8.945312c-.550782 0-.992188.441406-.992188.992187v16.867188c0 .550781.441406.996094.992188.996094h13.394531c.550781 0 .992187-.445313.992187-.996094v-12.417969zm0 0" fill="url(#h)"/><path d="m3.96875 19.648438v.382812c0 .550781.441406.996094.992188.996094h13.394531c.550781 0 .992187-.445313.992187-.996094v-.382812c0 .550781-.441406.992187-.992187.992187h-13.394531c-.550782 0-.992188-.441406-.992188-.992187zm0 0" fill-opacity=".235294"/><path d="m13.890625 6.761719h4.714844l.742187.742187v.992188h-5.457031zm0 0" fill="url(#i)"/><path d="m4.960938 2.171875c-.550782 0-.992188.441406-.992188.992187v.371094c0-.546875.441406-.992187.992188-.992187h8.945312l5.441406 5.445312v-.375l-5.441406-5.441406zm0 0" fill="#fff" fill-opacity=".392157"/><path d="m19.347656 7.613281-5.441406-5.441406v4.449219c0 .550781.441406.992187.992188.992187zm0 0" fill="url(#k)"/><path d="m13.90625 6.390625v.230469c0 .550781.441406.992187.992188.992187h4.449218l-.230468-.230469h-4.21875c-.550782 0-.992188-.445312-.992188-.992187zm0 0" fill-opacity=".235294"/><path d="m13.90625 2.171875v.371094l5.070312 5.070312h.371094zm0 0" fill="#fff" fill-opacity=".392157"/><path d="m13.90625 2.101562c-.039062 0-.070312.03125-.070312.070313v4.449219c0 .589844.476562 1.0625 1.0625 1.0625h4.449218c.03125 0 .054688-.015625.066406-.042969.011719-.023437.003907-.054687-.015624-.074219l-5.441407-5.445312c-.015625-.011719-.03125-.019532-.050781-.019532zm.070312.238282 5.203126 5.203125h-4.28125c-.511719 0-.921876-.410157-.921876-.921875zm0 0" fill="#212121"/><path d="m4.960938 2.101562c-.585938 0-1.0625.476563-1.0625 1.0625v16.867188c0 .589844.476562 1.066406 1.0625 1.066406h13.394531c.589843 0 1.0625-.476562 1.0625-1.066406v-12.417969c0-.015625-.003907-.035156-.019531-.046875l-5.441407-5.445312c-.015625-.011719-.03125-.019532-.050781-.019532zm0 .140626h8.917968l5.398438 5.402343v12.386719c0 .515625-.40625.925781-.921875.925781h-13.394531c-.511719 0-.921876-.410156-.921876-.925781v-16.867188c0-.511718.410157-.921874.921876-.921874zm0 0" fill="#212121"/><path d="m774.414246 706.389245c-12.912153.314931-24.249653 8.503125-30.863195 18.580903 6.298611 24.249653 1.574653 49.444098.314931 74.323612-37.791668 1.259722-75.583335.944792-113.375002-.629861-28.973611 8.503125-38.421528 42.830556-3.779167 55.742709 37.791668-1.574653 75.583335-3.464236 113.375002-5.66875-1.889583 34.957292-2.204514 69.599654-1.889583 104.556946-27.71389 12.282291-53.853126 28.973611-75.268404 50.70382-46.609723 45.03507-66.450348 117.784029-40.940973 178.250696 19.840625 46.294793 82.511807 57.002432 124.082641 35.587154 15.116666-.944792 37.791667-30.548265 45.979861-17.951042 27.084028 45.664931 93.219446 2.519444 47.554515-53.853126 44.405209-50.073959 72.119098-112.115279 93.534376-174.78646 15.746528 3.149305 31.807986 6.613541 46.924653 12.282291v-49.129167c-2.204514-.629861-4.723958-1.259722-6.928472-1.889583-16.376389-2.834375-30.863195-5.35382-19.840625-22.989931 8.503125-12.597222 18.265972-16.376389 14.171875-27.398959-17.951042-5.98368-37.161806-7.873264-55.742709-12.282292-26.769098-5.66875-10.077778 35.902084-21.730209 51.333682-33.69757 1.889583-67.39514 5.353819-99.832987 14.171875 0-30.233334 1.574653-60.151737 3.779167-90.385071 62.671181-5.353819 125.027432-11.967361 187.068752-23.619792 20.470486-3.779166 20.470486-51.333681-15.431598-51.333681-49.444097 11.967361-99.832987 19.840625-150.536807 24.879514-24.879514 7.873264-12.912153-43.145486-3.779167-66.765278-12.282291-16.061459-25.194444-22.04514-36.846875-21.730209zm285.642017 208.798961c-22.360069 0-39.996181 18.265972-39.996181 41.255903v298.554171h59.836807v-113.060071h140.144099v113.060071h59.836806v-298.554171c0-22.989931-17.636111-41.255903-39.996181-41.255903zm-183.289585 52.278473c-14.486806 44.405209-31.807987 89.125348-59.206945 127.231946-12.912153-35.902084-22.675001-73.06389-25.509376-110.855557 27.713889-7.873264 56.05764-14.486806 84.716321-16.376389zm223.285766 9.447917h99.832988c11.3375 0 20.155556 9.132986 20.155556 20.785417v82.196876h-140.144099v-82.196876c0-11.652431 9.132986-20.785417 20.155555-20.785417zm-358.076046 27.713889c2.204514 24.564584 5.66875 48.814237 11.02257 72.748959-1.259722 24.879514 32.437847 59.206945 5.98368 74.638543-22.675 17.951042-58.577084 32.752778-84.71632 14.171875-15.431597-20.470486-11.967361-49.444098-6.928472-73.06389 8.818055-39.68125 40.311111-68.969792 74.638542-88.495487zm238.087503 170.377433c-23.619792 10.707639-49.759028 17.00625-74.008681 21.730208-18.580903-.31493-31.493056 80.622223 68.654862 45.350001 1.889583-.629861 3.464236-1.259722 5.353819-1.889584zm0 0" fill="url(#l)" stroke="#212121" stroke-width="11.338583" transform="scale(.0124035)"/></svg>

<?xml version="1.0" encoding="UTF-8"?>
<svg xmlns="http://www.w3.org/2000/svg" xmlns:xlink="http://www.w3.org/1999/xlink" width="24pt" height="24pt" viewBox="0 0 24 24" version="1.1">
<defs>
<linearGradient id="linear0" gradientUnits="userSpaceOnUse" x1="254" y1="233.5" x2="254" y2="254.66667" gradientTransform="matrix(0.0468795,0,0,0.0468795,0.49614,10.079087)">
<stop offset="0" style="stop-color:rgb(0%,0%,0%);stop-opacity:0.27451;"/>
<stop offset="1" style="stop-color:rgb(0%,0%,0%);stop-opacity:0;"/>
</linearGradient>
<radialGradient id="radial0" gradientUnits="userSpaceOnUse" cx="450.90894" cy="189.57936" fx="450.90894" fy="189.57936" r="21.166656" gradientTransform="matrix(0.000000130628,-0.0585994,-0.105479,-0.0000000761539,37.113426,47.6965)">
<stop offset="0" style="stop-color:rgb(0%,0%,0%);stop-opacity:0.313725;"/>
<stop offset="0.222222" style="stop-color:rgb(0%,0%,0%);stop-opacity:0.27451;"/>
<stop offset="1" style="stop-color:rgb(0%,0%,0%);stop-opacity:0;"/>
</radialGradient>
<radialGradient id="radial1" gradientUnits="userSpaceOnUse" cx="450.90894" cy="189.57936" fx="450.90894" fy="189.57936" r="21.166656" gradientTransform="matrix(-0.000000130628,0.0585994,0.105479,0.0000000761539,-13.794789,-5.64561)">
<stop offset="0" style="stop-color:rgb(0%,0%,0%);stop-opacity:0.313725;"/>
<stop offset="0.222222" style="stop-color:rgb(0%,0%,0%);stop-opacity:0.27451;"/>
<stop offset="1" style="stop-color:rgb(0%,0%,0%);stop-opacity:0;"/>
</radialGradient>
<radialGradient id="radial2" gradientUnits="userSpaceOnUse" cx="450.90894" cy="189.57936" fx="450.90894" fy="189.57936" r="21.166656" gradientTransform="matrix(-0.000000130628,-0.0585994,0.105479,-0.0000000761539,-13.794789,47.6965)">
<stop offset="0" style="stop-color:rgb(0%,0%,0%);stop-opacity:0.313725;"/>
<stop offset="0.222222" style="stop-color:rgb(0%,0%,0%);stop-opacity:0.27451;"/>
<stop offset="1" style="stop-color:rgb(0%,0%,0%);stop-opacity:0;"/>
</radialGradient>
<radialGradient id="radial3" gradientUnits="userSpaceOnUse" cx="450.90894" cy="189.57936" fx="450.90894" fy="189.57936" r="21.166656" gradientTransform="matrix(0.000000130628,0.0585994,-0.105479,0.0000000761539,37.113425,-5.64561)">
<stop offset="0" style="stop-color:rgb(0%,0%,0%);stop-opacity:0.313725;"/>
<stop offset="0.222222" style="stop-color:rgb(0%,0%,0%);stop-opacity:0.27451;"/>
<stop offset="1" style="stop-color:rgb(0%,0%,0%);stop-opacity:0;"/>
</radialGradient>
<linearGradient id="linear1" gradientUnits="userSpaceOnUse" x1="940" y1="1695.1182" x2="940" y2="175.11812" gradientTransform="matrix(0.0124035,0,0,0.0124035,0,0)">
<stop offset="0" style="stop-color:rgb(87.843137%,87.843137%,87.843137%);stop-opacity:1;"/>
<stop offset="1" style="stop-color:rgb(93.333333%,93.333333%,93.333333%);stop-opacity:1;"/>
</linearGradient>
<linearGradient id="linear2" gradientUnits="userSpaceOnUse" x1="249.18942" y1="233.5" x2="249.18942" y2="254.66669" gradientTransform="matrix(0.0224206,0,0,0.082039,11.281817,-12.394717)">
<stop offset="0" style="stop-color:rgb(0%,0%,0%);stop-opacity:0.27451;"/>
<stop offset="1" style="stop-color:rgb(0%,0%,0%);stop-opacity:0;"/>
</linearGradient>
<linearGradient id="linear3" gradientUnits="userSpaceOnUse" x1="338.66666" y1="233.5" x2="338.66666" y2="-168.66667" gradientTransform="matrix(0.0468795,0,0,0.0468795,0,10.079087)">
<stop offset="0" style="stop-color:rgb(61.960784%,61.960784%,61.960784%);stop-opacity:1;"/>
<stop offset="1" style="stop-color:rgb(74.117647%,74.117647%,74.117647%);stop-opacity:1;"/>
</linearGradient>
<linearGradient id="linear4" gradientUnits="userSpaceOnUse" x1="350.80048" y1="198.31967" x2="357.47583" y2="-309.01959" gradientTransform="matrix(2.996023,0,0,2.996023,-251.00618,1100.9479)">
<stop offset="0" style="stop-color:rgb(61.960784%,61.960784%,61.960784%);stop-opacity:1;"/>
<stop offset="1" style="stop-color:rgb(74.117647%,74.117647%,74.117647%);stop-opacity:1;"/>
</linearGradient>
</defs>
<g id="surface1">
<path style=" stroke:none;fill-rule:nonzero;fill:url(#linear0);" d="M 5.953125 21.027344 L 17.363281 21.027344 L 17.363281 22.019531 L 5.953125 22.019531 Z M 5.953125 21.027344 "/>
<path style=" stroke:none;fill-rule:nonzero;fill:url(#radial0);" d="M 17.363281 21.027344 L 19.347656 21.027344 L 19.347656 20.03125 L 17.363281 20.03125 Z M 17.363281 21.027344 "/>
<path style=" stroke:none;fill-rule:nonzero;fill:url(#radial1);" d="M 5.953125 21.027344 L 3.96875 21.027344 L 3.96875 22.019531 L 5.953125 22.019531 Z M 5.953125 21.027344 "/>
<path style=" stroke:none;fill-rule:nonzero;fill:url(#radial2);" d="M 5.953125 21.027344 L 3.96875 21.027344 L 3.96875 20.03125 L 5.953125 20.03125 Z M 5.953125 21.027344 "/>
<path style=" stroke:none;fill-rule:nonzero;fill:url(#radial3);" d="M 17.363281 21.027344 L 19.347656 21.027344 L 19.347656 22.019531 L 17.363281 22.019531 Z M 17.363281 21.027344 "/>
<path style=" stroke:none;fill-rule:nonzero;fill:url(#linear1);" d="M 13.90625 2.171875 L 4.960938 2.171875 C 4.410156 2.171875 3.96875 2.613281 3.96875 3.164062 L 3.96875 20.03125 C 3.96875 20.582031 4.410156 21.027344 4.960938 21.027344 L 18.355469 21.027344 C 18.90625 21.027344 19.347656 20.582031 19.347656 20.03125 L 19.347656 7.613281 Z M 13.90625 2.171875 "/>
<path style=" stroke:none;fill-rule:nonzero;fill:rgb(0%,0%,0%);fill-opacity:0.235294;" d="M 3.96875 19.648438 L 3.96875 20.03125 C 3.96875 20.582031 4.410156 21.027344 4.960938 21.027344 L 18.355469 21.027344 C 18.90625 21.027344 19.347656 20.582031 19.347656 20.03125 L 19.347656 19.648438 C 19.347656 20.199219 18.90625 20.640625 18.355469 20.640625 L 4.960938 20.640625 C 4.410156 20.640625 3.96875 20.199219 3.96875 19.648438 Z M 3.96875 19.648438 "/>
<path style=" stroke:none;fill-rule:nonzero;fill:url(#linear2);" d="M 13.890625 6.761719 L 18.605469 6.761719 L 19.347656 7.503906 L 19.347656 8.496094 L 13.890625 8.496094 Z M 13.890625 6.761719 "/>
<path style=" stroke:none;fill-rule:nonzero;fill:rgb(100%,100%,100%);fill-opacity:0.392157;" d="M 4.960938 2.171875 C 4.410156 2.171875 3.96875 2.613281 3.96875 3.164062 L 3.96875 3.535156 C 3.96875 2.988281 4.410156 2.542969 4.960938 2.542969 L 13.90625 2.542969 L 19.347656 7.988281 L 19.347656 7.613281 L 13.90625 2.171875 Z M 4.960938 2.171875 "/>
<path style=" stroke:none;fill-rule:nonzero;fill:url(#linear3);" d="M 19.347656 7.613281 L 13.90625 2.171875 L 13.90625 6.621094 C 13.90625 7.171875 14.347656 7.613281 14.898438 7.613281 Z M 19.347656 7.613281 "/>
<path style=" stroke:none;fill-rule:nonzero;fill:rgb(0%,0%,0%);fill-opacity:0.235294;" d="M 13.90625 6.390625 L 13.90625 6.621094 C 13.90625 7.171875 14.347656 7.613281 14.898438 7.613281 L 19.347656 7.613281 L 19.117188 7.382812 L 14.898438 7.382812 C 14.347656 7.382812 13.90625 6.9375 13.90625 6.390625 Z M 13.90625 6.390625 "/>
<path style=" stroke:none;fill-rule:nonzero;fill:rgb(100%,100%,100%);fill-opacity:0.392157;" d="M 13.90625 2.171875 L 13.90625 2.542969 L 18.976562 7.613281 L 19.347656 7.613281 Z M 13.90625 2.171875 "/>
<path style=" stroke:none;fill-rule:nonzero;fill:rgb(12.941176%,12.941176%,12.941176%);fill-opacity:1;" d="M 13.90625 2.101562 C 13.867188 2.101562 13.835938 2.132812 13.835938 2.171875 L 13.835938 6.621094 C 13.835938 7.210938 14.3125 7.683594 14.898438 7.683594 L 19.347656 7.683594 C 19.378906 7.683594 19.402344 7.667969 19.414062 7.640625 C 19.425781 7.617188 19.417969 7.585938 19.398438 7.566406 L 13.957031 2.121094 C 13.941406 2.109375 13.925781 2.101562 13.90625 2.101562 Z M 13.976562 2.339844 L 19.179688 7.542969 L 14.898438 7.542969 C 14.386719 7.542969 13.976562 7.132812 13.976562 6.621094 Z M 13.976562 2.339844 "/>
<path style=" stroke:none;fill-rule:nonzero;fill:rgb(12.941176%,12.941176%,12.941176%);fill-opacity:1;" d="M 4.960938 2.101562 C 4.375 2.101562 3.898438 2.578125 3.898438 3.164062 L 3.898438 20.03125 C 3.898438 20.621094 4.375 21.097656 4.960938 21.097656 L 18.355469 21.097656 C 18.945312 21.097656 19.417969 20.621094 19.417969 20.03125 L 19.417969 7.613281 C 19.417969 7.597656 19.414062 7.578125 19.398438 7.566406 L 13.957031 2.121094 C 13.941406 2.109375 13.925781 2.101562 13.90625 2.101562 Z M 4.960938 2.242188 L 13.878906 2.242188 L 19.277344 7.644531 L 19.277344 20.03125 C 19.277344 20.546875 18.871094 20.957031 18.355469 20.957031 L 4.960938 20.957031 C 4.449219 20.957031 4.039062 20.546875 4.039062 20.03125 L 4.039062 3.164062 C 4.039062 2.652344 4.449219 2.242188 4.960938 2.242188 Z M 4.960938 2.242188 "/>
<path style="fill-rule:nonzero;fill:url(#linear4);stroke-width:11.338583;stroke-linecap:butt;stroke-linejoin:miter;stroke:rgb(12.941176%,12.941176%,12.941176%);stroke-opacity:1;stroke-miterlimit:4;" d="M 774.414246 706.389245 C 761.502093 706.704176 750.164593 714.89237 743.551051 724.970148 C 749.849662 749.219801 745.125704 774.414246 743.865982 799.29376 C 706.074314 800.553482 668.282647 800.238552 630.49098 798.663899 C 601.517369 807.167024 592.069452 841.494455 626.711813 854.406608 C 664.503481 852.831955 702.295148 850.942372 740.086815 848.737858 C 738.197232 883.69515 737.882301 918.337512 738.197232 953.294804 C 710.483342 965.577095 684.344106 982.268415 662.928828 1003.998624 C 616.319105 1049.033694 596.47848 1121.782653 621.987855 1182.24932 C 641.82848 1228.544113 704.499662 1239.251752 746.070496 1217.836474 C 761.187162 1216.891682 783.862163 1187.288209 792.050357 1199.885432 C 819.134385 1245.550363 885.269803 1202.404876 839.604872 1146.032306 C 884.010081 1095.958347 911.72397 1033.917027 933.139248 971.245846 C 948.885776 974.395151 964.947234 977.859387 980.063901 983.528137 L 980.063901 934.39897 C 977.859387 933.769109 975.339943 933.139248 973.135429 932.509387 C 956.75904 929.675012 942.272234 927.155567 953.294804 909.519456 C 961.797929 896.922234 971.560776 893.143067 967.466679 882.120497 C 949.515637 876.136817 930.304873 874.247233 911.72397 869.838205 C 884.954872 864.169455 901.646192 905.740289 889.993761 921.171887 C 856.296191 923.06147 822.598621 926.525706 790.160774 935.343762 C 790.160774 905.110428 791.735427 875.192025 793.939941 844.958691 C 856.611122 839.604872 918.967373 832.99133 981.008693 821.338899 C 1001.479179 817.559733 1001.479179 770.005218 965.577095 770.005218 C 916.132998 781.972579 865.744108 789.845843 815.040288 794.884732 C 790.160774 802.757996 802.128135 751.739246 811.261121 728.119454 C 798.97883 712.057995 786.066677 706.074314 774.414246 706.389245 Z M 1060.056263 915.188206 C 1037.696194 915.188206 1020.060082 933.454178 1020.060082 956.444109 L 1020.060082 1254.99828 L 1079.896889 1254.99828 L 1079.896889 1141.938209 L 1220.040988 1141.938209 L 1220.040988 1254.99828 L 1279.877794 1254.99828 L 1279.877794 956.444109 C 1279.877794 933.454178 1262.241683 915.188206 1239.881613 915.188206 Z M 876.766678 967.466679 C 862.279872 1011.871888 844.958691 1056.592027 817.559733 1094.698625 C 804.64758 1058.796541 794.884732 1021.634735 792.050357 983.843068 C 819.764246 975.969804 848.107997 969.356262 876.766678 967.466679 Z M 1100.052444 976.914596 L 1199.885432 976.914596 C 1211.222932 976.914596 1220.040988 986.047582 1220.040988 997.700013 L 1220.040988 1079.896889 L 1079.896889 1079.896889 L 1079.896889 997.700013 C 1079.896889 986.047582 1089.029875 976.914596 1100.052444 976.914596 Z M 741.976398 1004.628485 C 744.180912 1029.193069 747.645148 1053.442722 752.998968 1077.377444 C 751.739246 1102.256958 785.436815 1136.584389 758.982648 1152.015987 C 736.307648 1169.967029 700.405564 1184.768765 674.266328 1166.187862 C 658.834731 1145.717376 662.298967 1116.743764 667.337856 1093.123972 C 676.155911 1053.442722 707.648967 1024.15418 741.976398 1004.628485 Z M 980.063901 1175.005918 C 956.444109 1185.713557 930.304873 1192.012168 906.05522 1196.736126 C 887.474317 1196.421196 874.562164 1277.358349 974.710082 1242.086127 C 976.599665 1241.456266 978.174318 1240.826405 980.063901 1240.196543 Z M 980.063901 1175.005918 " transform="matrix(0.0124035,0,0,0.0124035,0,0)"/>
</g>
</svg>
